app/content/themes/irontheme/images/general/arrows.svg

<svg width="92" height="478" viewBox="0 0 92 478" fill="none" xmlns="http://www.w3.org/2000/svg">
<path d="M87.6465 477.354C87.8417 477.549 88.1583 477.549 88.3536 477.354L91.5356 474.172C91.7308 473.976 91.7308 473.66 91.5356 473.464C91.3403 473.269 91.0237 473.269 90.8284 473.464L88 476.293L85.1716 473.464C84.9763 473.269 84.6597 473.269 84.4645 473.464C84.2692 473.66 84.2692 473.976 84.4645 474.172L87.6465 477.354ZM87.5 2.18557e-08L87.5 477L88.5 477L88.5 -2.18557e-08L87.5 2.18557e-08Z" fill="#F96F35"/>
<path d="M59.6465 426.354C59.8417 426.549 60.1583 426.549 60.3536 426.354L63.5356 423.172C63.7308 422.976 63.7308 422.66 63.5356 422.464C63.3403 422.269 63.0237 422.269 62.8284 422.464L60 425.293L57.1716 422.464C56.9763 422.269 56.6597 422.269 56.4645 422.464C56.2692 422.66 56.2692 422.976 56.4645 423.172L59.6465 426.354ZM59.5 33L59.5 426L60.5 426L60.5 33L59.5 33Z" fill="#F96F35"/>
<path d="M31.6465 366.354C31.8417 366.549 32.1583 366.549 32.3536 366.354L35.5355 363.172C35.7308 362.976 35.7308 362.66 35.5355 362.464C35.3403 362.269 35.0237 362.269 34.8284 362.464L32 365.293L29.1716 362.464C28.9763 362.269 28.6597 362.269 28.4645 362.464C28.2692 362.66 28.2692 362.976 28.4645 363.172L31.6465 366.354ZM31.5 87L31.5 366L32.5 366L32.5 87L31.5 87Z" fill="#F96F35"/>
<path d="M3.64645 300.354C3.84172 300.549 4.1583 300.549 4.35356 300.354L7.53554 297.172C7.7308 296.976 7.7308 296.66 7.53554 296.464C7.34028 296.269 7.0237 296.269 6.82843 296.464L4.00001 299.293L1.17158 296.464C0.976319 296.269 0.659736 296.269 0.464474 296.464C0.269212 296.66 0.269212 296.976 0.464474 297.172L3.64645 300.354ZM3.5 117L3.50001 300L4.50001 300L4.5 117L3.5 117Z" fill="#F96F35"/>
</svg>

<svg width="92" height="478" viewBox="0 0 92 478" fill="none" xmlns="http://www.w3.org/2000/svg"><path d="M87.647 477.354a.5.5 0 00.707 0l3.182-3.182a.501.501 0 00-.708-.708L88 476.293l-2.828-2.829a.5.5 0 00-.707.708l3.181 3.182zM87.5 0v477h1V0h-1zM59.647 426.354a.5.5 0 00.707 0l3.182-3.182a.501.501 0 00-.708-.708L60 425.293l-2.828-2.829a.5.5 0 00-.707.708l3.181 3.182zM59.5 33v393h1V33h-1zM31.646 366.354a.5.5 0 00.708 0l3.181-3.182a.501.501 0 00-.707-.708L32 365.293l-2.828-2.829a.5.5 0 00-.707.708l3.181 3.182zM31.5 87v279h1V87h-1zM3.646 300.354a.5.5 0 00.708 0l3.182-3.182a.501.501 0 00-.708-.708L4 299.293l-2.828-2.829a.5.5 0 00-.708.708l3.182 3.182zM3.5 117v183h1V117h-1z" fill="#F96F35"/></svg>
